X:12
M:6/8
L:1/8
Q:3/8=100
K:A
|:cde fga|f2 d ecA|Ace ef=g|fdf a3|Ace agf|edc B2 A|A>EA A>EA|Adc B2 A:|

